icons/edge.svg

<svg width="16" height="16" viewBox="0 0 16 16" fill="none" xmlns="http://www.w3.org/2000/svg">
<path fill-rule="evenodd" clip-rule="evenodd" d="M2 8C2 12.8392 3.16084 14 8 14C12.8392 14 14 12.8392 14 8C14 3.16084 12.8392 2 8 2C3.16084 2 2 3.16084 2 8ZM5.56501 6.1687L8.50559 7.41894L10.3799 6.8387C10.5056 6.7998 10.5912 6.68363 10.5912 6.55211V4.57647C10.5912 4.36364 10.3758 4.21849 10.1785 4.29845L5.56501 6.1687ZM4.78794 6.96201V9.21656C4.78794 9.3371 4.86009 9.44594 4.97112 9.49288L10.1744 11.6926C10.3722 11.7763 10.5912 11.6311 10.5912 11.4163V9.61431C10.5912 9.49377 10.5191 9.38493 10.408 9.33799L4.78794 6.96201Z" fill="#EB556C"/>
</svg>

<svg xmlns="http://www.w3.org/2000/svg" width="16" height="16" fill="none"><path fill="#EB556C" fill-rule="evenodd" d="M2 8c0 4.84 1.16 6 6 6s6-1.16 6-6-1.16-6-6-6-6 1.16-6 6Zm3.565-1.831 2.94 1.25 1.875-.58a.3.3 0 0 0 .211-.287V4.576a.3.3 0 0 0-.412-.278l-4.614 1.87Zm-.777.793v2.255a.3.3 0 0 0 .183.276l5.203 2.2a.3.3 0 0 0 .417-.277V9.614a.3.3 0 0 0-.183-.276l-5.62-2.376Z" clip-rule="evenodd"/></svg>
